src/assets/icons/christmas.svg

<?xml version="1.0" encoding="utf-8"?>
<!-- Generator: Adobe Illustrator 26.5.0, SVG Export Plug-In . SVG Version: 6.00 Build 0)  -->
<svg version="1.1" id="Ebene_1" xmlns="http://www.w3.org/2000/svg" xmlns:xlink="http://www.w3.org/1999/xlink" x="0px" y="0px"
	 viewBox="0 0 48 48" style="enable-background:new 0 0 48 48;" xml:space="preserve">
<g>
	<path d="M27.2,46.1h-6.4v-6.3H5.5l8.6-11.6H9.8L24,9.4l14.2,18.8h-4.3l8.5,11.6H27.2V46.1z"/>
	<path d="M20.7,11.3l0.9-3.5l-2.9-2.4l3.8-0.3L24,1.9l1.5,3.3l3.8,0.3l-2.9,2.4l0.9,3.5L24,9.4L20.7,11.3z"/>
</g>
</svg>

<?xml version="1.0" encoding="UTF-8" standalone="no"?>
<!-- Generator: Adobe Illustrator 26.5.0, SVG Export Plug-In . SVG Version: 6.00 Build 0)  -->

<svg
   version="1.1"
   id="Ebene_1"
   x="0px"
   y="0px"
   viewBox="0 0 48 48"
   style="enable-background:new 0 0 48 48;"
   xml:space="preserve"
   sodipodi:docname="christmas.svg"
   inkscape:version="1.2.1 (9c6d41e410, 2022-07-14)"
   xmlns:inkscape="http://www.inkscape.org/namespaces/inkscape"
   xmlns:sodipodi="http://sodipodi.sourceforge.net/DTD/sodipodi-0.dtd"
   xmlns="http://www.w3.org/2000/svg"
   xmlns:svg="http://www.w3.org/2000/svg"><defs
   id="defs78" /><sodipodi:namedview
   id="namedview76"
   pagecolor="#505050"
   bordercolor="#eeeeee"
   borderopacity="1"
   inkscape:showpageshadow="0"
   inkscape:pageopacity="0"
   inkscape:pagecheckerboard="0"
   inkscape:deskcolor="#505050"
   showgrid="false"
   inkscape:zoom="4.9166667"
   inkscape:cx="24"
   inkscape:cy="24.101695"
   inkscape:window-width="1500"
   inkscape:window-height="930"
   inkscape:window-x="-6"
   inkscape:window-y="-6"
   inkscape:window-maximized="1"
   inkscape:current-layer="Ebene_1" />
<g
   id="g73">
	
	<path
   id="path71"
   d="M 20.7,11.3 21.6,7.8 18.7,5.4 22.5,5.1 24,1.9 l 1.5,3.3 3.8,0.3 -2.9,2.4 0.9,3.5 -3.3,-2 z m 6.5,34.8 H 20.8 V 39.8 H 5.5 L 14.1,28.2 H 9.8 L 24,9.4 38.2,28.2 h -4.3 l 8.5,11.6 H 27.2 Z" />
</g>
</svg>
